X: 0603
T: THE DEVIL'S DREAM
B: Oliver Ditson "The Boston Collection of Instrumental Music" 1910 p.60 #3
F: http://conquest.imslp.info/files/imglnks/usimg/8/8f/IMSLP175643-PMLP309456-bostoncollection00bost_bw.pdf
M: 2/2
L: 1/8
K: A
e2 |\
agae agae | agae fedc | dfBf dfBf | dfBf agfe |\
agae agae | agae fedc | dfed cABA | E2A2A2 :|
|: e2 |\
ceAe ceAe | ceAe fedc | dfBf dfBf | dfBf agfe |\
ceAe ceAe | ceAe fedc | defg aefd | c2A2A2 :|

%%sep 1 1 500
%%sep 1 1 500
